svg/ice-cream.svg

<svg xmlns="http://www.w3.org/2000/svg" viewBox="0 0 32 64" enable-background="new 0 0 32 64"><style type="text/css">.st0{fill:#343434;}</style><title>ice-cream</title><desc>Created with Sketch.</desc><path class="st0" d="M16 0c-8.8 0-16 7.2-16 16v32h13v13c0 1.6 1.3 3 3 3s3-1.3 3-3v-13h13v-32c0-8.8-7.2-16-16-16zm12 44h-24v-28c0-6.6 5.4-12 12-12s12 5.4 12 12v28z"/></svg>

<?xml version="1.0" encoding="utf-8"?>
<!-- Generator: Adobe Illustrator 21.0.0, SVG Export Plug-In . SVG Version: 6.00 Build 0)  -->
<svg version="1.1" id="Layer_1" xmlns="http://www.w3.org/2000/svg" xmlns:xlink="http://www.w3.org/1999/xlink" x="0px" y="0px"
	 viewBox="0 0 32 64" style="enable-background:new 0 0 32 64;" xml:space="preserve">
<style type="text/css">
	.st0{fill:#343434;}
</style>
<title>ice-cream</title>
<desc>Created with Sketch.</desc>
<path class="st0" d="M16,0C7.2,0,0,7.2,0,16v32h13v13c0,1.6,1.3,3,3,3s3-1.3,3-3V48h13V16C32,7.2,24.8,0,16,0z M28,44H4V16
	C4,9.4,9.4,4,16,4s12,5.4,12,12V44z"/>
</svg>
